build/assets/img/svg/logo-vodadom.svg

<svg width="170" height="111" viewBox="0 0 170 111" fill="none" xmlns="http://www.w3.org/2000/svg">
<path d="M29.1638 19.7026L34.1015 3.87311H39.099L31.5129 24.9212H26.8296L19.2734 3.87311H24.256L29.1638 19.7026Z" fill="black"/>
<path d="M58.8498 14.8742C58.8498 16.9463 58.4707 18.7629 57.7126 20.3242C56.9545 21.8854 55.8672 23.0901 54.4507 23.9382C53.0442 24.7863 51.4283 25.2104 49.6028 25.2104C47.7973 25.2104 46.1863 24.7911 44.7699 23.9527C43.3534 23.1142 42.2561 21.9192 41.4781 20.3676C40.7 18.8063 40.306 17.0137 40.296 14.9899V13.949C40.296 11.877 40.6801 10.0555 41.4481 8.48461C42.2262 6.90408 43.3185 5.69458 44.725 4.85612C46.1414 4.00803 47.7574 3.58398 49.5729 3.58398C51.3884 3.58398 52.9993 4.00803 54.4058 4.85612C55.8223 5.69458 56.9146 6.90408 57.6827 8.48461C58.4607 10.0555 58.8498 11.8722 58.8498 13.9346V14.8742ZM54.3011 13.9201C54.3011 11.7131 53.8921 10.0362 53.0742 8.88938C52.2562 7.74253 51.0891 7.1691 49.5729 7.1691C48.0666 7.1691 46.9045 7.73771 46.0866 8.87493C45.2686 10.0025 44.8547 11.6601 44.8447 13.8478V14.8742C44.8447 17.0234 45.2537 18.6906 46.0716 19.876C46.8896 21.0614 48.0666 21.6541 49.6028 21.6541C51.1091 21.6541 52.2662 21.0855 53.0742 19.9483C53.8821 18.8015 54.2911 17.1342 54.3011 14.9465V13.9201Z" fill="black"/>
<path d="M62.1116 24.9212V3.87311H68.8149C70.7301 3.87311 72.4409 4.29233 73.9471 5.13079C75.4633 5.95961 76.6454 7.14501 77.4933 8.687C78.3412 10.2193 78.7651 11.9637 78.7651 13.9201V14.8887C78.7651 16.8451 78.3461 18.5846 77.5082 20.1073C76.6803 21.6301 75.5082 22.8106 73.992 23.6491C72.4758 24.4875 70.765 24.9116 68.8598 24.9212H62.1116ZM66.6004 7.38595V21.4373H68.77C70.5257 21.4373 71.8673 20.8832 72.795 19.7749C73.7227 18.6665 74.1965 17.0812 74.2164 15.0188V13.9057C74.2164 11.7662 73.7576 10.1471 72.8399 9.0484C71.9222 7.9401 70.5805 7.38595 68.8149 7.38595H66.6004Z" fill="black"/>
<path d="M94.0121 20.5844H86.1417L84.6454 24.9212H79.8723L87.9821 3.87311H92.1417L100.296 24.9212H95.5233L94.0121 20.5844ZM87.3537 17.0716H92.8001L90.0619 9.19296L87.3537 17.0716Z" fill="black"/>
<path d="M86.5859 81.391V60.3428H93.2433C95.1454 60.3428 96.8444 60.7621 98.3403 61.6005C99.8462 62.4293 101.02 63.6147 101.862 65.1567C102.704 66.6891 103.125 68.4334 103.125 70.3898V71.3584C103.125 73.3148 102.709 75.0544 101.877 76.5771C101.055 78.0998 99.8908 79.2804 98.3849 80.1188C96.8791 80.9573 95.1801 81.3813 93.2879 81.391H86.5859ZM91.044 63.8557V77.907H93.1987C94.9423 77.907 96.2748 77.3529 97.1961 76.2446C98.1174 75.1363 98.588 73.5509 98.6078 71.4885V70.3754C98.6078 68.2359 98.1521 66.6168 97.2407 65.5181C96.3293 64.4098 94.9968 63.8557 93.2433 63.8557H91.044Z" fill="url(#paint0_linear)"/>
<path d="M124.152 71.3439C124.152 73.416 123.776 75.2326 123.023 76.7939C122.27 78.3552 121.19 79.5599 119.784 80.4079C118.387 81.256 116.782 81.6801 114.969 81.6801C113.176 81.6801 111.576 81.2609 110.169 80.4224C108.762 79.5839 107.673 78.3889 106.9 76.8373C106.127 75.276 105.736 73.4835 105.726 71.4596V70.4188C105.726 68.3467 106.107 66.5252 106.87 64.9543C107.643 63.3738 108.728 62.1643 110.124 61.3259C111.531 60.4778 113.136 60.0537 114.939 60.0537C116.742 60.0537 118.342 60.4778 119.739 61.3259C121.146 62.1643 122.231 63.3738 122.993 64.9543C123.766 66.5252 124.152 68.3419 124.152 70.4043V71.3439ZM119.635 70.3898C119.635 68.1829 119.229 66.506 118.416 65.3591C117.604 64.2123 116.445 63.6388 114.939 63.6388C113.443 63.6388 112.289 64.2074 111.477 65.3447C110.664 66.4722 110.253 68.1299 110.243 70.3176V71.3439C110.243 73.4931 110.65 75.1604 111.462 76.3458C112.274 77.5312 113.443 78.1239 114.969 78.1239C116.465 78.1239 117.614 77.5553 118.416 76.4181C119.219 75.2712 119.625 73.6039 119.635 71.4162V70.3898Z" fill="url(#paint1_linear)"/>
<path d="M133.217 60.3428L138.775 75.6085L144.303 60.3428H150.158V81.391H145.685V75.6374L146.131 65.7061L140.291 81.391H137.229L131.404 65.7205L131.85 75.6374V81.391H127.392V60.3428H133.217Z" fill="url(#paint2_linear)"/>
<path d="M59.1641 73.2687V34.8218H101.545L59.1641 73.2687Z" fill="black"/>
<path d="M57.918 72.0668V32.4185H100.299L57.918 72.0668Z" fill="url(#paint3_linear)"/>
<path d="M127.719 15.5987V55.2471H85.3375L127.719 15.5987Z" fill="url(#paint4_linear)"/>
<path d="M126.473 14.3966V54.0449H85.3379L126.473 14.3966Z" fill="black"/>
<path d="M10.3915 105.189C10.3915 105.476 10.3335 105.748 10.2176 106.003C10.11 106.251 9.95682 106.47 9.75811 106.662C9.55939 106.853 9.32756 107.005 9.06261 107.116C8.80594 107.22 8.52857 107.272 8.2305 107.272H2.91491C2.61684 107.272 2.33533 107.22 2.07038 107.116C1.81371 107.005 1.58602 106.853 1.38731 106.662C1.18859 106.47 1.03128 106.251 0.915361 106.003C0.807724 105.748 0.753906 105.476 0.753906 105.189V102.747C0.753906 102.46 0.807724 102.192 0.915361 101.945C1.03128 101.69 1.18859 101.466 1.38731 101.275C1.58602 101.083 1.81371 100.935 2.07038 100.832C2.33533 100.72 2.61684 100.664 2.91491 100.664H8.2305C8.52857 100.664 8.80594 100.72 9.06261 100.832C9.32756 100.935 9.55939 101.083 9.75811 101.275C9.95682 101.466 10.11 101.69 10.2176 101.945C10.3335 102.192 10.3915 102.46 10.3915 102.747V105.189ZM8.60308 105.548V102.388H2.54233V105.548H8.60308Z" fill="black"/>
<path d="M21.443 105.189C21.443 105.476 21.385 105.748 21.2691 106.003C21.1615 106.251 21.0083 106.47 20.8096 106.662C20.6109 106.853 20.379 107.005 20.1141 107.116C19.8574 107.22 19.5801 107.272 19.282 107.272H13.9664C13.6683 107.272 13.3868 107.22 13.1219 107.116C12.8652 107.005 12.6375 106.853 12.4388 106.662C12.2401 106.47 12.0828 106.251 11.9669 106.003C11.8592 105.748 11.8054 105.476 11.8054 105.189V102.747C11.8054 102.46 11.8592 102.192 11.9669 101.945C12.0828 101.69 12.2401 101.466 12.4388 101.275C12.6375 101.083 12.8652 100.935 13.1219 100.832C13.3868 100.72 13.6683 100.664 13.9664 100.664H19.282C19.5801 100.664 19.8574 100.72 20.1141 100.832C20.379 100.935 20.6109 101.083 20.8096 101.275C21.0083 101.466 21.1615 101.69 21.2691 101.945C21.385 102.192 21.443 102.46 21.443 102.747V105.189ZM19.6546 105.548V102.388H13.5938V105.548H19.6546Z" fill="black"/>
<path d="M32.4945 105.189C32.4945 105.476 32.4365 105.748 32.3206 106.003C32.213 106.251 32.0598 106.47 31.8611 106.662C31.6624 106.853 31.4305 107.005 31.1656 107.116C30.9089 107.22 30.6315 107.272 30.3335 107.272H25.0179C24.7198 107.272 24.4383 107.22 24.1734 107.116C23.9167 107.005 23.689 106.853 23.4903 106.662C23.2916 106.47 23.1343 106.251 23.0183 106.003C22.9107 105.748 22.8569 105.476 22.8569 105.189V102.747C22.8569 102.46 22.9107 102.192 23.0183 101.945C23.1343 101.69 23.2916 101.466 23.4903 101.275C23.689 101.083 23.9167 100.935 24.1734 100.832C24.4383 100.72 24.7198 100.664 25.0179 100.664H30.3335C30.6315 100.664 30.9089 100.72 31.1656 100.832C31.4305 100.935 31.6624 101.083 31.8611 101.275C32.0598 101.466 32.213 101.69 32.3206 101.945C32.4365 102.192 32.4945 102.46 32.4945 102.747V105.189ZM30.7061 105.548V102.388H24.6453V105.548H30.7061Z" fill="black"/>
<path d="M44.8907 106.123H42.3571C42.1832 105.955 42.0135 105.796 41.8479 105.644C41.6906 105.492 41.5498 105.337 41.4256 105.177C41.3014 105.01 41.2021 104.83 41.1275 104.638C41.053 104.447 41.0158 104.223 41.0158 103.968C41.0158 103.713 41.053 103.489 41.1275 103.298C41.2021 103.106 41.3014 102.931 41.4256 102.771C41.5498 102.603 41.6906 102.444 41.8479 102.292C42.0135 102.141 42.1832 101.981 42.3571 101.813H44.8907L42.6552 103.968L44.8907 106.123ZM41.5622 106.123H39.0286C38.8548 105.955 38.685 105.796 38.5194 105.644C38.3621 105.492 38.2214 105.337 38.0972 105.177C37.973 105.01 37.8736 104.83 37.7991 104.638C37.7246 104.447 37.6873 104.223 37.6873 103.968C37.6873 103.713 37.7246 103.489 37.7991 103.298C37.8736 103.106 37.973 102.931 38.0972 102.771C38.2214 102.603 38.3621 102.444 38.5194 102.292C38.685 102.141 38.8548 101.981 39.0286 101.813H41.5622L39.3267 103.968L41.5622 106.123Z" fill="black"/>
<path d="M55.5459 103.465C55.5459 103.753 55.4879 104.024 55.372 104.279C55.2644 104.527 55.1112 104.746 54.9125 104.938C54.7138 105.129 54.482 105.281 54.217 105.393C53.9603 105.496 53.683 105.548 53.3849 105.548H47.6967V107.272H45.9083V100.664H53.3849C53.683 100.664 53.9603 100.72 54.217 100.832C54.482 100.935 54.7138 101.083 54.9125 101.275C55.1112 101.466 55.2644 101.69 55.372 101.945C55.4879 102.192 55.5459 102.46 55.5459 102.747V103.465ZM53.7575 103.824V102.388H47.6967V103.824H53.7575Z" fill="black"/>
<path d="M68.229 107.272H65.9562L64.9875 106.003H59.2124L58.2437 107.272H55.9709L60.5413 101.37C60.7317 101.139 60.9553 100.939 61.212 100.772C61.4769 100.604 61.775 100.521 62.1062 100.521C62.4291 100.521 62.723 100.604 62.988 100.772C63.2529 100.939 63.4765 101.139 63.6586 101.37L68.229 107.272ZM63.6835 104.279L62.0938 102.172L60.504 104.279H63.6835Z" fill="black"/>
<path d="M78.4858 107.272H76.6973V104.83H70.6366V107.272H68.8482V100.664H70.6366V103.106H76.6973V100.664H78.4858V107.272Z" fill="black"/>
<path d="M89.5373 107.272H82.0607C81.7626 107.272 81.4811 107.22 81.2161 107.116C80.9595 107.005 80.7318 106.853 80.5331 106.662C80.3343 106.47 80.177 106.251 80.0611 106.003C79.9535 105.748 79.8997 105.476 79.8997 105.189V102.747C79.8997 102.46 79.9535 102.192 80.0611 101.945C80.177 101.69 80.3343 101.466 80.5331 101.275C80.7318 101.083 80.9595 100.935 81.2161 100.832C81.4811 100.72 81.7626 100.664 82.0607 100.664H89.5373V102.388H81.6881V105.548H89.5373V107.272Z" fill="black"/>
<path d="M102.68 107.272H100.891V102.244L98.2709 106.566C98.1136 106.821 97.8983 107.029 97.6251 107.188C97.3519 107.34 97.0497 107.416 96.7185 107.416C96.3873 107.416 96.0851 107.34 95.8119 107.188C95.5469 107.029 95.3358 106.821 95.1785 106.566L92.5455 102.244V107.272H90.7571V102.244C90.7571 102.005 90.8026 101.781 90.8937 101.574C90.993 101.366 91.1214 101.187 91.2787 101.035C91.4443 100.876 91.6347 100.752 91.85 100.664C92.0653 100.568 92.2971 100.521 92.5455 100.521C92.8933 100.521 93.2037 100.608 93.477 100.784C93.7502 100.951 93.9696 101.171 94.1352 101.442L96.7185 105.692L99.3142 101.442C99.4798 101.171 99.695 100.951 99.96 100.784C100.233 100.608 100.544 100.521 100.891 100.521C101.14 100.521 101.372 100.568 101.587 100.664C101.802 100.752 101.989 100.876 102.146 101.035C102.311 101.187 102.44 101.366 102.531 101.574C102.63 101.781 102.68 102.005 102.68 102.244V107.272Z" fill="black"/>
<path d="M115.564 107.272H113.291L112.323 106.003H106.548L105.579 107.272H103.306L107.876 101.37C108.067 101.139 108.29 100.939 108.547 100.772C108.812 100.604 109.11 100.521 109.441 100.521C109.764 100.521 110.058 100.604 110.323 100.772C110.588 100.939 110.812 101.139 110.994 101.37L115.564 107.272ZM111.019 104.279L109.429 102.172L107.839 104.279H111.019Z" fill="black"/>
<path d="M125.821 107.272H118.344C118.046 107.272 117.765 107.22 117.5 107.116C117.243 107.005 117.015 106.853 116.817 106.662C116.618 106.47 116.461 106.251 116.345 106.003C116.237 105.748 116.183 105.476 116.183 105.189V102.747C116.183 102.46 116.237 102.192 116.345 101.945C116.461 101.69 116.618 101.466 116.817 101.275C117.015 101.083 117.243 100.935 117.5 100.832C117.765 100.72 118.046 100.664 118.344 100.664H125.821V102.388H117.972V105.548H125.821V107.272Z" fill="black"/>
<path d="M161.973 103.465C161.973 103.753 161.915 104.024 161.799 104.279C161.691 104.527 161.538 104.746 161.339 104.938C161.14 105.129 160.909 105.281 160.644 105.393C160.387 105.496 160.11 105.548 159.812 105.548H154.123V107.272H152.335V100.664H159.812C160.11 100.664 160.387 100.72 160.644 100.832C160.909 100.935 161.14 101.083 161.339 101.275C161.538 101.466 161.691 101.69 161.799 101.945C161.915 102.192 161.973 102.46 161.973 102.747V103.465ZM160.184 103.824V102.388H154.123V103.824H160.184Z" fill="black"/>
<path d="M169.998 103.968C169.998 104.223 169.961 104.447 169.887 104.638C169.812 104.83 169.713 105.01 169.588 105.177C169.464 105.337 169.319 105.492 169.154 105.644C168.996 105.796 168.831 105.955 168.657 106.123H166.123L168.359 103.968L166.123 101.813H168.657C168.831 101.981 168.996 102.141 169.154 102.292C169.319 102.444 169.464 102.603 169.588 102.771C169.713 102.931 169.812 103.106 169.887 103.298C169.961 103.489 169.998 103.713 169.998 103.968ZM166.67 103.968C166.67 104.223 166.633 104.447 166.558 104.638C166.484 104.83 166.384 105.01 166.26 105.177C166.136 105.337 165.991 105.492 165.825 105.644C165.668 105.796 165.502 105.955 165.329 106.123H162.795L165.03 103.968L162.795 101.813H165.329C165.502 101.981 165.668 102.141 165.825 102.292C165.991 102.444 166.136 102.603 166.26 102.771C166.384 102.931 166.484 103.106 166.558 103.298C166.633 103.489 166.67 103.713 166.67 103.968Z" fill="black"/>
<path d="M139.319 100.679V101.986H132.771V103.194H137.18C137.538 103.194 137.859 103.212 138.141 103.249C138.43 103.279 138.685 103.34 138.905 103.43C139.288 103.588 139.564 103.821 139.734 104.13C139.91 104.432 139.998 104.793 139.998 105.21C139.998 105.58 139.938 105.891 139.819 106.146C139.699 106.394 139.536 106.597 139.329 106.754C139.04 106.966 138.71 107.105 138.339 107.172C137.975 107.238 137.542 107.272 137.039 107.272H131.047V100.679H139.319ZM137.039 105.964C137.202 105.964 137.363 105.961 137.52 105.955C137.677 105.949 137.812 105.919 137.925 105.864C138.145 105.761 138.255 105.54 138.255 105.201C138.255 105.044 138.233 104.92 138.189 104.829C138.151 104.732 138.094 104.656 138.019 104.602C137.912 104.523 137.774 104.478 137.604 104.466C137.435 104.453 137.246 104.447 137.039 104.447H132.771V105.964H137.039Z" fill="black"/>
<path d="M151.737 100.679L146.498 106.055C146.266 106.291 146.049 106.488 145.848 106.645C145.654 106.803 145.456 106.93 145.255 107.027C145.054 107.117 144.837 107.181 144.605 107.217C144.378 107.254 144.115 107.272 143.813 107.272H142.353V105.964H143.578C143.936 105.964 144.218 105.922 144.426 105.837C144.639 105.752 144.837 105.616 145.019 105.428L145.377 105.065L141.043 100.679H143.314L146.442 103.921L149.551 100.679H151.737Z" fill="black"/>
<defs>
<linearGradient id="paint0_linear" x1="86.5859" y1="70.8669" x2="140.749" y2="70.8669" gradientUnits="userSpaceOnUse">
<stop stop-color="#FDA905"/>
<stop offset="1" stop-color="#EE7900"/>
</linearGradient>
<linearGradient id="paint1_linear" x1="86.5859" y1="70.8669" x2="140.749" y2="70.8669" gradientUnits="userSpaceOnUse">
<stop stop-color="#FDA905"/>
<stop offset="1" stop-color="#EE7900"/>
</linearGradient>
<linearGradient id="paint2_linear" x1="86.5859" y1="70.8669" x2="140.749" y2="70.8669" gradientUnits="userSpaceOnUse">
<stop stop-color="#FDA905"/>
<stop offset="1" stop-color="#EE7900"/>
</linearGradient>
<linearGradient id="paint3_linear" x1="57.918" y1="52.2426" x2="94.0268" y2="52.2426" gradientUnits="userSpaceOnUse">
<stop stop-color="#FDA905"/>
<stop offset="1" stop-color="#EE7900"/>
</linearGradient>
<linearGradient id="paint4_linear" x1="127.719" y1="35.4229" x2="91.6099" y2="35.4229" gradientUnits="userSpaceOnUse">
<stop stop-color="#FDA905"/>
<stop offset="1" stop-color="#EE7900"/>
</linearGradient>
</defs>
</svg>

<svg width="170" height="111" fill="none" xmlns="http://www.w3.org/2000/svg"><path d="M29.164 19.703l4.938-15.83h4.997l-7.586 21.048H26.83L19.273 3.873h4.983l4.908 15.83zm29.686-4.829c0 2.072-.38 3.889-1.137 5.45-.758 1.561-1.846 2.766-3.262 3.614-1.407.848-3.023 1.272-4.848 1.272-1.806 0-3.417-.419-4.833-1.257-1.417-.839-2.514-2.034-3.292-3.585-.778-1.562-1.172-3.354-1.182-5.378v-1.041c0-2.072.384-3.893 1.152-5.464.778-1.58 1.87-2.79 3.277-3.629 1.416-.848 3.032-1.272 4.848-1.272 1.815 0 3.426.424 4.833 1.272 1.416.839 2.509 2.048 3.277 3.629.778 1.57 1.167 3.387 1.167 5.45v.94zm-4.55-.954c0-2.207-.409-3.884-1.227-5.03-.818-1.147-1.985-1.72-3.501-1.72-1.506 0-2.669.568-3.486 1.705-.818 1.127-1.232 2.785-1.242 4.973v1.026c0 2.15.409 3.817 1.227 5.002.818 1.185 1.995 1.778 3.53 1.778 1.507 0 2.664-.569 3.472-1.706.808-1.146 1.217-2.814 1.227-5.002V13.92zm7.812 11.001V3.873h6.703c1.915 0 3.626.42 5.132 1.258 1.516.829 2.698 2.014 3.546 3.556.848 1.532 1.272 3.277 1.272 5.233v.969c0 1.956-.419 3.696-1.257 5.218a8.736 8.736 0 01-3.516 3.542c-1.516.838-3.227 1.263-5.132 1.272h-6.748zM66.6 7.386v14.051h2.17c1.756 0 3.097-.554 4.025-1.662.928-1.108 1.401-2.694 1.421-4.756v-1.113c0-2.14-.458-3.759-1.376-4.858-.918-1.108-2.26-1.662-4.025-1.662H66.6zm27.412 13.198h-7.87l-1.497 4.337h-4.773l8.11-21.048h4.16l8.154 21.048h-4.773l-1.51-4.337zm-6.658-3.512H92.8l-2.738-7.879-2.708 7.879z" fill="#000"/><path d="M86.586 81.391V60.343h6.657c1.902 0 3.601.42 5.097 1.257 1.506.83 2.68 2.015 3.522 3.557.842 1.532 1.263 3.276 1.263 5.233v.968c0 1.957-.416 3.696-1.248 5.22a8.705 8.705 0 01-3.492 3.54c-1.506.84-3.205 1.263-5.097 1.273h-6.702zm4.458-17.535v14.051h2.155c1.743 0 3.076-.554 3.997-1.662.921-1.109 1.392-2.694 1.412-4.757v-1.113c0-2.14-.456-3.758-1.367-4.857-.912-1.108-2.244-1.662-3.998-1.662h-2.199z" fill="url(#paint0_linear)"/><path d="M124.152 71.344c0 2.072-.376 3.889-1.129 5.45-.753 1.561-1.833 2.766-3.239 3.614-1.397.848-3.002 1.272-4.815 1.272-1.793 0-3.393-.42-4.8-1.258-1.407-.838-2.496-2.033-3.269-3.585-.773-1.561-1.164-3.353-1.174-5.377v-1.041c0-2.072.381-3.894 1.144-5.465.773-1.58 1.858-2.79 3.254-3.628 1.407-.848 3.012-1.272 4.815-1.272 1.803 0 3.403.424 4.8 1.272 1.407.838 2.492 2.048 3.254 3.628.773 1.571 1.159 3.388 1.159 5.45v.94zm-4.517-.954c0-2.207-.406-3.884-1.219-5.03-.812-1.148-1.971-1.721-3.477-1.721-1.496 0-2.65.568-3.462 1.706-.813 1.127-1.224 2.785-1.234 4.973v1.026c0 2.15.407 3.816 1.219 5.002.812 1.185 1.981 1.778 3.507 1.778 1.496 0 2.645-.569 3.447-1.706.803-1.147 1.209-2.814 1.219-5.002V70.39z" fill="url(#paint1_linear)"/><path d="M133.217 60.343l5.558 15.266 5.528-15.266h5.855V81.39h-4.473v-5.754l.446-9.93-5.84 15.684h-3.062l-5.825-15.67.446 9.916v5.754h-4.458V60.343h5.825z" fill="url(#paint2_linear)"/><path d="M59.164 73.269V34.822h42.381l-42.38 38.447z" fill="#000"/><path d="M57.918 72.067V32.419h42.381L57.918 72.067z" fill="url(#paint3_linear)"/><path d="M127.719 15.599v39.648H85.338L127.719 15.6z" fill="url(#paint4_linear)"/><path d="M126.473 14.397v39.648H85.338l41.135-39.648zM10.392 105.189c0 .287-.058.559-.174.814a2.038 2.038 0 01-.46.659c-.199.191-.43.343-.695.454a2.195 2.195 0 01-.833.156H2.915a2.29 2.29 0 01-.845-.156 2.29 2.29 0 01-.683-.454 2.21 2.21 0 01-.472-.659 2.074 2.074 0 01-.161-.814v-2.442c0-.287.054-.555.161-.802a2.16 2.16 0 011.155-1.113 2.15 2.15 0 01.845-.168H8.23c.299 0 .576.056.833.168.265.103.496.251.695.443a2 2 0 01.46.67c.116.247.174.515.174.802v2.442zm-1.789.359v-3.16h-6.06v3.16h6.06zm12.84-.359c0 .287-.058.559-.174.814-.107.248-.26.467-.46.659-.198.191-.43.343-.695.454a2.195 2.195 0 01-.832.156h-5.316a2.29 2.29 0 01-.844-.156 2.29 2.29 0 01-.683-.454 2.21 2.21 0 01-.472-.659 2.073 2.073 0 01-.162-.814v-2.442c0-.287.054-.555.162-.802a2.16 2.16 0 011.155-1.113c.265-.112.546-.168.844-.168h5.316c.298 0 .575.056.832.168.265.103.497.251.696.443.198.191.352.415.46.67.115.247.173.515.173.802v2.442zm-1.788.359v-3.16h-6.061v3.16h6.06zm12.84-.359c0 .287-.058.559-.174.814a2.038 2.038 0 01-.46.659c-.199.191-.43.343-.695.454a2.195 2.195 0 01-.832.156h-5.316a2.29 2.29 0 01-.845-.156 2.29 2.29 0 01-.683-.454 2.212 2.212 0 01-.472-.659 2.075 2.075 0 01-.161-.814v-2.442c0-.287.054-.555.161-.802a2.163 2.163 0 011.155-1.113 2.15 2.15 0 01.845-.168h5.316c.297 0 .575.056.832.168.264.103.496.251.695.443a2 2 0 01.46.67c.116.247.174.515.174.802v2.442zm-1.789.359v-3.16h-6.06v3.16h6.06zm14.184.575h-2.533a27.293 27.293 0 00-.51-.479 4.421 4.421 0 01-.421-.467 2.289 2.289 0 01-.299-.539 1.84 1.84 0 01-.111-.67c0-.255.037-.479.111-.67.075-.192.174-.367.299-.527a3.85 3.85 0 01.422-.479c.166-.151.335-.311.51-.479h2.533l-2.236 2.155 2.236 2.155zm-3.328 0H39.03a26.984 26.984 0 00-.51-.479 4.42 4.42 0 01-.422-.467 2.285 2.285 0 01-.298-.539 1.84 1.84 0 01-.112-.67c0-.255.038-.479.112-.67.075-.192.174-.367.298-.527a3.85 3.85 0 01.422-.479c.166-.151.336-.311.51-.479h2.533l-2.235 2.155 2.235 2.155zm13.984-2.658c0 .288-.058.559-.174.814-.108.248-.26.467-.46.659-.198.191-.43.343-.695.455a2.214 2.214 0 01-.832.155h-5.688v1.724h-1.789v-6.608h7.477c.298 0 .575.056.832.168.265.103.497.251.696.443.198.191.351.415.459.67.116.247.174.515.174.802v.718zm-1.788.359v-1.436h-6.061v1.436h6.06zm14.471 3.448h-2.273l-.969-1.269h-5.775l-.968 1.269H55.97l4.57-5.902c.19-.231.414-.431.671-.598.265-.168.563-.251.894-.251.323 0 .617.083.882.251.265.167.489.367.67.598l4.571 5.902zm-4.545-2.993l-1.59-2.107-1.59 2.107h3.18zm14.802 2.993h-1.789v-2.442h-6.06v2.442h-1.789v-6.608h1.789v2.442h6.06v-2.442h1.789v6.608zm11.051 0h-7.476a2.29 2.29 0 01-.845-.156 2.29 2.29 0 01-.683-.454 2.209 2.209 0 01-.472-.659 2.075 2.075 0 01-.161-.814v-2.442c0-.287.053-.555.161-.802a2.16 2.16 0 011.155-1.113 2.15 2.15 0 01.845-.168h7.476v1.724h-7.849v3.16h7.85v1.724zm13.143 0h-1.789v-5.028l-2.62 4.322a1.82 1.82 0 01-.646.622 1.833 1.833 0 01-.906.228c-.332 0-.634-.076-.907-.228a1.852 1.852 0 01-.633-.622l-2.633-4.322v5.028h-1.789v-5.028c0-.239.046-.463.137-.67a1.802 1.802 0 01.956-.91c.215-.096.447-.143.696-.143.347 0 .658.087.931.263.273.167.493.387.658.658l2.584 4.25 2.595-4.25c.166-.271.381-.491.646-.658.273-.176.584-.263.931-.263.249 0 .481.047.696.143.215.088.402.212.559.371.165.152.294.331.385.539.099.207.149.431.149.67v5.028zm12.884 0h-2.273l-.968-1.269h-5.775l-.969 1.269h-2.273l4.57-5.902c.191-.231.414-.431.671-.598.265-.168.563-.251.894-.251.323 0 .617.083.882.251.265.167.489.367.671.598l4.57 5.902zm-4.545-2.993l-1.59-2.107-1.59 2.107h3.18zm14.802 2.993h-7.477c-.298 0-.579-.052-.844-.156a2.277 2.277 0 01-1.155-1.113 2.068 2.068 0 01-.162-.814v-2.442c0-.287.054-.555.162-.802a2.158 2.158 0 011.155-1.113c.265-.112.546-.168.844-.168h7.477v1.724h-7.849v3.16h7.849v1.724zm36.152-3.807c0 .288-.058.559-.174.814a2.038 2.038 0 01-.46.659c-.199.191-.43.343-.695.455a2.215 2.215 0 01-.832.155h-5.689v1.724h-1.788v-6.608h7.477c.298 0 .575.056.832.168.265.103.496.251.695.443a2 2 0 01.46.67c.116.247.174.515.174.802v.718zm-1.789.359v-1.436h-6.061v1.436h6.061zm9.814.144c0 .255-.037.479-.111.67a2.278 2.278 0 01-.299.539c-.124.16-.269.315-.434.467l-.497.479h-2.534l2.236-2.155-2.236-2.155h2.534l.497.479c.165.152.31.311.434.479.125.16.224.335.299.527.074.191.111.415.111.67zm-3.328 0c0 .255-.037.479-.112.67a2.274 2.274 0 01-.298.539c-.124.16-.269.315-.435.467l-.496.479h-2.534l2.235-2.155-2.235-2.155h2.534l.496.479c.166.152.311.311.435.479a1.83 1.83 0 01.41 1.197zm-27.351-3.289v1.307h-6.548v1.208h4.409c.358 0 .679.018.961.055.289.03.544.091.764.181.383.158.659.391.829.7.176.302.264.663.264 1.08 0 .37-.06.681-.179.936-.12.248-.283.451-.49.608a2.357 2.357 0 01-.99.418c-.364.066-.797.1-1.3.1h-5.992v-6.593h8.272zm-2.28 5.285c.163 0 .324-.003.481-.009.157-.006.292-.036.405-.091.22-.103.33-.324.33-.663a.867.867 0 00-.066-.372.494.494 0 00-.17-.227.776.776 0 00-.415-.136 7.45 7.45 0 00-.565-.019h-4.268v1.517h4.268zm14.698-5.285l-5.239 5.376a6.799 6.799 0 01-.65.59 3.02 3.02 0 01-.593.382c-.201.09-.418.154-.65.19-.227.037-.49.055-.792.055h-1.46v-1.308h1.225c.358 0 .64-.042.848-.127.213-.085.411-.221.593-.409l.358-.363-4.334-4.386h2.271l3.128 3.242 3.109-3.242h2.186z" fill="#000"/><defs><linearGradient id="paint0_linear" x1="86.586" y1="70.867" x2="140.749" y2="70.867" gradientUnits="userSpaceOnUse"><stop stop-color="#FDA905"/><stop offset="1" stop-color="#EE7900"/></linearGradient><linearGradient id="paint1_linear" x1="86.586" y1="70.867" x2="140.749" y2="70.867" gradientUnits="userSpaceOnUse"><stop stop-color="#FDA905"/><stop offset="1" stop-color="#EE7900"/></linearGradient><linearGradient id="paint2_linear" x1="86.586" y1="70.867" x2="140.749" y2="70.867" gradientUnits="userSpaceOnUse"><stop stop-color="#FDA905"/><stop offset="1" stop-color="#EE7900"/></linearGradient><linearGradient id="paint3_linear" x1="57.918" y1="52.243" x2="94.027" y2="52.243" gradientUnits="userSpaceOnUse"><stop stop-color="#FDA905"/><stop offset="1" stop-color="#EE7900"/></linearGradient><linearGradient id="paint4_linear" x1="127.719" y1="35.423" x2="91.61" y2="35.423" gradientUnits="userSpaceOnUse"><stop stop-color="#FDA905"/><stop offset="1" stop-color="#EE7900"/></linearGradient></defs></svg>
